src/topics/icons/npm.svg

<svg height="100" preserveAspectRatio="xMidYMid" viewBox="0 0 256 100" width="256" xmlns="http://www.w3.org/2000/svg"><path d="m0 0v85.4980695h71.1660232v14.3320463h56.8339768v-14.3320463h128v-85.4980695z" fill="#cb3837"/><g fill="#fff"><path d="m42.5019305 14.3320463h-28.1698842v14.3320464 42.5019305h28.1698842v-42.5019305h14.3320463v42.5019305h14.3320464v-42.5019305-14.3320464z"/><path d="m85.4980695 14.3320463v53.8687259 2.965251 14.3320463h28.6640925v-14.3320463h28.169884v-56.8339769zm42.5019305 42.5019305h-13.837838v-28.1698841h13.837838z"/><path d="m184.833977 14.3320463h-28.169884v14.3320464 42.5019305h28.169884v-42.5019305h14.332046v42.5019305h14.332046v-42.5019305h14.332047v42.5019305h14.332046v-42.5019305-13.3436294-.988417z"/></g></svg>

<?xml version="1.0" encoding="UTF-8" standalone="no" ?>
<svg width="256px" height="100px" viewBox="0 0 256 100" version="1.1" xmlns="http://www.w3.org/2000/svg" xmlns:xlink="http://www.w3.org/1999/xlink" preserveAspectRatio="xMidYMid">
    <g>
        <path d="M0,0 L0,85.4980695 L71.1660232,85.4980695 L71.1660232,99.8301158 L128,99.8301158 L128,85.4980695 L256,85.4980695 L256,0 L0,0 L0,0 Z" fill="#CB3837"></path>
        <path d="M42.5019305,14.3320463 L14.3320463,14.3320463 L14.3320463,28.6640927 L14.3320463,71.1660232 L42.5019305,71.1660232 L42.5019305,28.6640927 L56.8339768,28.6640927 L56.8339768,71.1660232 L71.1660232,71.1660232 L71.1660232,28.6640927 L71.1660232,14.3320463 L42.5019305,14.3320463 L42.5019305,14.3320463 Z" fill="#FFFFFF"></path>
        <path d="M85.4980695,14.3320463 L85.4980695,68.2007722 L85.4980695,71.1660232 L85.4980695,85.4980695 L114.162162,85.4980695 L114.162162,71.1660232 L142.332046,71.1660232 L142.332046,14.3320463 L85.4980695,14.3320463 L85.4980695,14.3320463 Z M128,56.8339768 L114.162162,56.8339768 L114.162162,28.6640927 L128,28.6640927 L128,56.8339768 L128,56.8339768 Z" fill="#FFFFFF"></path>
        <path d="M184.833977,14.3320463 L156.664093,14.3320463 L156.664093,28.6640927 L156.664093,71.1660232 L184.833977,71.1660232 L184.833977,28.6640927 L199.166023,28.6640927 L199.166023,71.1660232 L213.498069,71.1660232 L213.498069,28.6640927 L227.830116,28.6640927 L227.830116,71.1660232 L242.162162,71.1660232 L242.162162,28.6640927 L242.162162,15.3204633 L242.162162,14.3320463 L184.833977,14.3320463 L184.833977,14.3320463 Z" fill="#FFFFFF"></path>
    </g>
</svg>
